tools/download-figma-icons/icons/solid/gas-plant.svg

<svg width="24" height="24" viewBox="0 0 24 24" fill="none" xmlns="http://www.w3.org/2000/svg">
<path fill-rule="evenodd" clip-rule="evenodd" d="M8.385 22.5H15.0225V21.7875H8.385V22.5ZM9.81 15.7725C9.855 15.975 9.7275 16.17 9.52425 16.215C9.5025 16.2225 9.4725 16.2225 9.4425 16.2225C9.2775 16.2225 9.12 16.11 9.0825 15.9375C9.0675 15.8625 8.94 15.24 9.42 14.4375C9.03 14.025 8.73 13.395 8.88 12.4425C8.985 11.745 9.555 10.8375 11.6625 10.5C12.54 10.3575 13.29 10.125 13.71 9.86253C13.8225 9.79503 13.9575 9.78753 14.07 9.84003C14.19 9.89253 14.265 10.005 14.28 10.1325C14.295 10.2 14.4908 11.8425 13.6275 13.53C12.9975 14.7525 11.9025 15.075 11.07 15.075C10.8075 15.075 10.56 15.045 10.3725 14.9925C10.2743 14.97 10.155 14.925 10.035 14.8725C9.74251 15.39 9.81 15.7575 9.81 15.7725ZM8.58001 1.86C8.58001 1.665 8.73751 1.5 8.93251 1.5H14.4675C14.6625 1.5 14.8275 1.665 14.8275 1.86V4.245H12.78V3.3825C12.78 2.9625 12.4425 2.6325 12.03 2.6325H11.2275C10.815 2.6325 10.4775 2.9625 10.4775 3.3825V4.245H8.58001V1.86ZM16.68 4.245H16.3275V1.86C16.3275 0.8325 15.495 0 14.4675 0H8.9325C7.9125 0 7.08 0.8325 7.08 1.86V4.245H6.72C5.4975 4.245 4.5 5.2425 4.5 6.4725V19.56C4.5 20.79 5.4975 21.7875 6.72 21.7875H6.885V23.025C6.885 23.565 7.32 24 7.86 24H15.5475C16.08 24 16.5225 23.565 16.5225 23.025V21.7875H16.68C17.91 21.7875 18.9075 20.79 18.9075 19.56V6.4725C18.9075 5.2425 17.91 4.245 16.68 4.245Z" fill="black"/>
</svg>

<svg xmlns="http://www.w3.org/2000/svg" width="24" height="24" fill="none" viewBox="0 0 24 24"><path fill="currentColor" fill-rule="evenodd" d="M8.385 22.5h6.638v-.712H8.385zm1.425-6.727a.37.37 0 0 1-.286.442c-.021.008-.051.008-.081.008a.37.37 0 0 1-.36-.285c-.015-.075-.143-.698.337-1.5-.39-.413-.69-1.043-.54-1.995.105-.698.675-1.605 2.782-1.943.878-.143 1.628-.375 2.048-.637a.38.38 0 0 1 .36-.023.36.36 0 0 1 .21.293c.015.067.21 1.71-.652 3.397-.63 1.223-1.726 1.545-2.558 1.545-.263 0-.51-.03-.697-.082a2 2 0 0 1-.338-.12c-.292.517-.225.885-.225.9M8.58 1.86c0-.195.158-.36.353-.36h5.534c.195 0 .36.165.36.36v2.385H12.78v-.863c0-.42-.337-.75-.75-.75h-.803c-.412 0-.75.33-.75.75v.863H8.58zm8.1 2.385h-.352V1.86A1.86 1.86 0 0 0 14.468 0H8.932A1.86 1.86 0 0 0 7.08 1.86v2.385h-.36c-1.223 0-2.22.997-2.22 2.228V19.56c0 1.23.997 2.228 2.22 2.228h.165v1.237c0 .54.435.975.975.975h7.687a.98.98 0 0 0 .976-.975v-1.237h.157c1.23 0 2.227-.998 2.227-2.228V6.473c0-1.23-.997-2.228-2.227-2.228" clip-rule="evenodd"/></svg>
